X:161
T:La grande gigue simple
Z:robin.beech@mcgill.ca
S:Vices et Versa 28/12/2011 Alexei Chartrand
M:3/4
L:1/16
K:D
A,DDE FDED EGFD | A,DDE FDEB AGFD | A,DDE FDED EGFD |1 A,DDE FDEB AGFD  :|2 A,DDE FDEB AGFA |: 
dfed cABc efec | dfed cAdB AGFA | dfed cABc efec | dfdf gefd ecAc :| 
dfdf gefd ecAc | defg afdf ecAc | defg afdf ecAc | defg afdB AGFD |]

